dist/svgs/unicons/line/schedule.svg

<svg xmlns="http://www.w3.org/2000/svg" viewBox="0 0 24 24"><path d="M12 14a1 1 0 10-1-1 1 1 0 001 1zm5 0a1 1 0 10-1-1 1 1 0 001 1zm-5 4a1 1 0 10-1-1 1 1 0 001 1zm5 0a1 1 0 10-1-1 1 1 0 001 1zM7 14a1 1 0 10-1-1 1 1 0 001 1zM19 4h-1V3a1 1 0 00-2 0v1H8V3a1 1 0 00-2 0v1H5a3 3 0 00-3 3v12a3 3 0 003 3h14a3 3 0 003-3V7a3 3 0 00-3-3zm1 15a1 1 0 01-1 1H5a1 1 0 01-1-1v-9h16zm0-11H4V7a1 1 0 011-1h14a1 1 0 011 1zM7 18a1 1 0 10-1-1 1 1 0 001 1z"/></svg>

<svg xmlns="http://www.w3.org/2000/svg" viewBox="0 0 24 24"><path d="M12,14a1,1,0,1,0-1-1A1,1,0,0,0,12,14Zm5,0a1,1,0,1,0-1-1A1,1,0,0,0,17,14Zm-5,4a1,1,0,1,0-1-1A1,1,0,0,0,12,18Zm5,0a1,1,0,1,0-1-1A1,1,0,0,0,17,18ZM7,14a1,1,0,1,0-1-1A1,1,0,0,0,7,14ZM19,4H18V3a1,1,0,0,0-2,0V4H8V3A1,1,0,0,0,6,3V4H5A3,3,0,0,0,2,7V19a3,3,0,0,0,3,3H19a3,3,0,0,0,3-3V7A3,3,0,0,0,19,4Zm1,15a1,1,0,0,1-1,1H5a1,1,0,0,1-1-1V10H20ZM20,8H4V7A1,1,0,0,1,5,6H19a1,1,0,0,1,1,1ZM7,18a1,1,0,1,0-1-1A1,1,0,0,0,7,18Z"/></svg>
